X:100
T:Temperance Reel
T:Teetotaller
M:4/4
L:1/8
R:reel
K:Gmaj
|: D | G2GF GABc | dBeB dBAc | BEED EFGA | BGAF GFED |
G2GF GABc | dBeB dBAc | BEED EFGA | BGAF G3 :|
|: A | Beed e2ef | geaf gfed | Bdd^c d2de | fdaf gfed |
Beed e2ef | geaf gfed | BEED EFGA | BGAF G3 :|
